Newaita-dark/actions/32/format-precision-more.svg

<svg height="32" viewBox="0 0 32 32" width="32" xmlns="http://www.w3.org/2000/svg"><g fill="#e0e0e0"><path d="m29.105469 24.066406v1.320313c0 .367187-.292969.664062-.660157.664062h-7.9375c-.367187 0-.664062-.296875-.664062-.664062v-1.320313c0-.367187.296875-.664062.664062-.664062h7.9375c.367188 0 .660157.296875.660157.664062zm0 0"/><path d="m25.136719 29.355469h-1.320313c-.367187 0-.664062-.292969-.664062-.660157v-7.9375c0-.367187.296875-.664062.664062-.664062h1.320313c.367187 0 .664062.296875.664062.664062v7.9375c0 .367188-.296875.660157-.664062.660157zm0 0"/><path d="m12.570312 2.894531c-2.75 0-4.960937 2.214844-4.960937 4.964844v4.628906c0 2.75 2.210937 4.960938 4.960937 4.960938 2.746094 0 4.960938-2.210938 4.960938-4.960938v-4.628906c0-2.75-2.214844-4.964844-4.960938-4.964844zm0 2.648438c1.28125 0 2.3125 1.03125 2.3125 2.316406v4.628906c0 1.28125-1.03125 2.316407-2.3125 2.316407-1.285156 0-2.316406-1.035157-2.316406-2.316407v-4.628906c0-1.285156 1.03125-2.316406 2.316406-2.316406zm0 0"/><path d="m24.144531 2.894531c-2.746093 0-4.960937 2.214844-4.960937 4.964844v4.628906c0 2.75 2.214844 4.960938 4.960937 4.960938 2.75 0 4.960938-2.210938 4.960938-4.960938v-4.628906c0-2.75-2.210938-4.964844-4.960938-4.964844zm0 2.648438c1.285157 0 2.316407 1.03125 2.316407 2.316406v4.628906c0 1.28125-1.03125 2.316407-2.316407 2.316407-1.28125 0-2.3125-1.035157-2.3125-2.316407v-4.628906c0-1.285156 1.03125-2.316406 2.3125-2.316406zm0 0"/><path d="m3.308594 14.804688h1.320312c.367188 0 .664063.296874.664063.660156v1.324218c0 .363282-.296875.660157-.664063.660157h-1.320312c-.367188 0-.664063-.296875-.664063-.660157v-1.324218c0-.363282.296875-.660156.664063-.660156zm0 0"/></g></svg>

<?xml version="1.0" encoding="UTF-8"?>
<svg xmlns="http://www.w3.org/2000/svg" xmlns:xlink="http://www.w3.org/1999/xlink" width="32px" height="32px" viewBox="0 0 32 32" version="1.1">
<g id="surface1">
<path style=" stroke:none;fill-rule:nonzero;fill:rgb(87.843138%,87.843138%,87.843138%);fill-opacity:1;" d="M 29.105469 24.066406 L 29.105469 25.386719 C 29.105469 25.753906 28.8125 26.050781 28.445312 26.050781 L 20.507812 26.050781 C 20.140625 26.050781 19.84375 25.753906 19.84375 25.386719 L 19.84375 24.066406 C 19.84375 23.699219 20.140625 23.402344 20.507812 23.402344 L 28.445312 23.402344 C 28.8125 23.402344 29.105469 23.699219 29.105469 24.066406 Z M 29.105469 24.066406 "/>
<path style=" stroke:none;fill-rule:nonzero;fill:rgb(87.843138%,87.843138%,87.843138%);fill-opacity:1;" d="M 25.136719 29.355469 L 23.816406 29.355469 C 23.449219 29.355469 23.152344 29.0625 23.152344 28.695312 L 23.152344 20.757812 C 23.152344 20.390625 23.449219 20.09375 23.816406 20.09375 L 25.136719 20.09375 C 25.503906 20.09375 25.800781 20.390625 25.800781 20.757812 L 25.800781 28.695312 C 25.800781 29.0625 25.503906 29.355469 25.136719 29.355469 Z M 25.136719 29.355469 "/>
<path style=" stroke:none;fill-rule:nonzero;fill:rgb(87.843138%,87.843138%,87.843138%);fill-opacity:1;" d="M 12.570312 2.894531 C 9.820312 2.894531 7.609375 5.109375 7.609375 7.859375 L 7.609375 12.488281 C 7.609375 15.238281 9.820312 17.449219 12.570312 17.449219 C 15.316406 17.449219 17.53125 15.238281 17.53125 12.488281 L 17.53125 7.859375 C 17.53125 5.109375 15.316406 2.894531 12.570312 2.894531 Z M 12.570312 5.542969 C 13.851562 5.542969 14.882812 6.574219 14.882812 7.859375 L 14.882812 12.488281 C 14.882812 13.769531 13.851562 14.804688 12.570312 14.804688 C 11.285156 14.804688 10.253906 13.769531 10.253906 12.488281 L 10.253906 7.859375 C 10.253906 6.574219 11.285156 5.542969 12.570312 5.542969 Z M 12.570312 5.542969 "/>
<path style=" stroke:none;fill-rule:nonzero;fill:rgb(87.843138%,87.843138%,87.843138%);fill-opacity:1;" d="M 24.144531 2.894531 C 21.398438 2.894531 19.183594 5.109375 19.183594 7.859375 L 19.183594 12.488281 C 19.183594 15.238281 21.398438 17.449219 24.144531 17.449219 C 26.894531 17.449219 29.105469 15.238281 29.105469 12.488281 L 29.105469 7.859375 C 29.105469 5.109375 26.894531 2.894531 24.144531 2.894531 Z M 24.144531 5.542969 C 25.429688 5.542969 26.460938 6.574219 26.460938 7.859375 L 26.460938 12.488281 C 26.460938 13.769531 25.429688 14.804688 24.144531 14.804688 C 22.863281 14.804688 21.832031 13.769531 21.832031 12.488281 L 21.832031 7.859375 C 21.832031 6.574219 22.863281 5.542969 24.144531 5.542969 Z M 24.144531 5.542969 "/>
<path style=" stroke:none;fill-rule:nonzero;fill:rgb(87.843138%,87.843138%,87.843138%);fill-opacity:1;" d="M 3.308594 14.804688 L 4.628906 14.804688 C 4.996094 14.804688 5.292969 15.101562 5.292969 15.464844 L 5.292969 16.789062 C 5.292969 17.152344 4.996094 17.449219 4.628906 17.449219 L 3.308594 17.449219 C 2.941406 17.449219 2.644531 17.152344 2.644531 16.789062 L 2.644531 15.464844 C 2.644531 15.101562 2.941406 14.804688 3.308594 14.804688 Z M 3.308594 14.804688 "/>
</g>
</svg>
